packages/core/src/svgs/botto.svg

<svg width="24" height="24" viewBox="0 0 24 24" fill="none" xmlns="http://www.w3.org/2000/svg">
<g clip-path="url(#clip0_31_7313)">
<path d="M0 0H24V24H0V0Z" fill="#F0F3FA"/>
<path fill-rule="evenodd" clip-rule="evenodd" d="M13.0413 18.4284C15.8099 18.4284 17.5713 17.1299 17.5713 14.8284C17.5713 12.8313 15.8613 11.8413 13.4999 11.7856V11.747C15.7028 11.5499 17.1856 10.4013 17.1856 8.51557C17.1856 6.50129 15.4713 5.57129 12.7413 5.57129H6.42847V5.60986L7.55561 6.75843C7.69704 6.90843 7.71418 6.95986 7.71418 7.19986V16.7999C7.71418 17.0399 7.69704 17.0913 7.55561 17.2413L6.42847 18.3856V18.4284H13.0413ZM11.807 11.5713H10.7142V6.36415C10.7142 6.05557 10.7656 5.99986 11.0313 5.99986H11.8756C13.1613 5.99986 13.7142 7.03272 13.7142 8.66129C13.7142 10.4741 13.1442 11.5713 11.807 11.5713ZM11.1385 17.9999H11.8756C13.4999 17.9999 14.1428 16.9284 14.1428 14.9356C14.1428 12.977 13.4828 11.9999 11.8242 11.9999H10.7142V17.6656C10.7142 17.9827 10.7785 17.9999 11.1385 17.9999Z" fill="#1C1C1C"/>
</g>
<defs>
<clipPath id="clip0_31_7313">
<rect width="24" height="24" fill="white"/>
</clipPath>
</defs>
</svg>

<svg xmlns="http://www.w3.org/2000/svg" width="24" height="24" fill="none" viewBox="0 0 24 24"><g clip-path="url(#a)"><path fill="#F0F3FA" d="M0 0h24v24H0z"/><path fill="#1C1C1C" fill-rule="evenodd" d="M13.041 18.428c2.769 0 4.53-1.298 4.53-3.6 0-1.997-1.71-2.987-4.071-3.042v-.039c2.203-.197 3.686-1.346 3.686-3.231 0-2.015-1.715-2.945-4.445-2.945H6.428v.039l1.128 1.148c.141.15.158.202.158.442v9.6c0 .24-.017.291-.158.441l-1.128 1.145v.042zm-1.234-6.857h-1.093V6.364c0-.308.052-.364.317-.364h.845c1.285 0 1.838 1.033 1.838 2.661 0 1.813-.57 2.91-1.907 2.91M11.139 18h.737c1.624 0 2.267-1.072 2.267-3.064 0-1.959-.66-2.936-2.319-2.936h-1.11v5.666c0 .317.064.334.425.334" clip-rule="evenodd"/></g><defs><clipPath id="a"><path fill="#fff" d="M0 0h24v24H0z"/></clipPath></defs></svg>
